icon-themes/sifr_svg/cmd/sc_radiobutton.svg

<svg viewBox="0 0 16 16" xmlns="http://www.w3.org/2000/svg"><path d="m8.5449219 3.1953125c-2.9425708 0-5.328125 2.3836011-5.328125 5.3261719 0 2.9425706 2.3855542 5.3281246 5.328125 5.3281246 2.9425701 0 5.3261721-2.385554 5.3261721-5.3281246 0-2.9425708-2.383602-5.3261719-5.3261721-5.3261719zm-.0078125 1.3476563c2.2013866 0 3.9863276 1.7849093 3.9863286 3.9863281 0 2.2014511-1.784942 3.9863281-3.9863286 3.9863281-2.2013868 0-3.9863281-1.784877-3.9863282-3.9863281-.0000533-2.2014188 1.7849414-3.9863281 3.9863282-3.9863281zm.0078125 1.8574218a2.1227309 2.1227121 0 0 0 -2.1230469 2.1210938 2.1227309 2.1227121 0 0 0 2.1230469 2.1230466 2.1227309 2.1227121 0 0 0 2.1210941-2.1230466 2.1227309 2.1227121 0 0 0 -2.1210941-2.1210938z" fill="#555753"/></svg>

<svg xmlns="http://www.w3.org/2000/svg" viewBox="0 0 16 16">
 <path
     style="fill:#555753"
     d="M 8.5449219 3.1953125 C 5.6023511 3.1953125 3.2167969 5.5789136 3.2167969 8.5214844 C 3.2167969 11.464055 5.6023511 13.849609 8.5449219 13.849609 C 11.487492 13.849609 13.871094 11.464055 13.871094 8.5214844 C 13.871094 5.5789136 11.487492 3.1953125 8.5449219 3.1953125 z M 8.5371094 4.5429688 C 10.738496 4.5429688 12.523437 6.3278781 12.523438 8.5292969 C 12.523438 10.730748 10.738496 12.515625 8.5371094 12.515625 C 6.3357226 12.515625 4.5507813 10.730748 4.5507812 8.5292969 C 4.5507279 6.3278781 6.3357226 4.5429688 8.5371094 4.5429688 z M 8.5449219 6.4003906 A 2.1227309 2.1227121 0 0 0 6.421875 8.5214844 A 2.1227309 2.1227121 0 0 0 8.5449219 10.644531 A 2.1227309 2.1227121 0 0 0 10.666016 8.5214844 A 2.1227309 2.1227121 0 0 0 8.5449219 6.4003906 z "
     />
 </svg>
